front-end/src/icons/svg/presentation.svg

<svg width="129" height="129" viewBox="0 0 129 129" fill="none" xmlns="http://www.w3.org/2000/svg">
<path d="M100.212 31.1123C97.2362 31.1123 94.8238 33.2865 94.8238 35.9686C94.8238 36.9332 95.1398 37.8291 95.6777 38.5849L75.7649 57.1761C74.9189 56.6779 73.9099 56.3858 72.8234 56.3858C72.0172 56.3858 71.2555 56.5497 70.569 56.8359L63.3331 46.7371C63.8375 45.9979 64.1337 45.1305 64.1337 44.1993C64.1337 41.5174 61.7219 39.343 58.7466 39.343C55.7712 39.343 53.3589 41.5171 53.3589 44.1993C53.3589 45.1639 53.6748 46.0598 54.2124 46.8156L34.2996 65.407C33.4536 64.9086 32.4446 64.6162 31.3584 64.6162C28.3828 64.6162 25.9707 66.7906 25.9707 69.4725C25.9707 72.1544 28.3828 74.3288 31.3584 74.3288C34.3338 74.3288 36.7459 72.1544 36.7459 69.4725C36.7459 68.4765 36.4123 67.5512 35.8415 66.7804L55.7233 48.2184C56.5856 48.7465 57.626 49.0553 58.7469 49.0553C59.8299 49.0553 60.8361 48.7646 61.6809 48.269L68.7234 58.0969C67.9218 58.9445 67.4363 60.0413 67.4363 61.2418C67.4363 63.9237 69.8484 66.0981 72.824 66.0981C75.7997 66.0981 78.2114 63.924 78.2114 61.2418C78.2114 60.2461 77.8782 59.3208 77.3071 58.5498L97.1886 39.9877C98.0509 40.5158 99.0913 40.8246 100.212 40.8246C103.188 40.8246 105.599 38.6502 105.599 35.9683C105.598 33.2864 103.187 31.1123 100.212 31.1123ZM31.3578 73.0932C29.1388 73.0932 27.3402 71.4723 27.3402 69.4719C27.3402 67.4727 29.1388 65.8515 31.3578 65.8515C33.5768 65.8515 35.3751 67.4727 35.3751 69.4719C35.3754 71.472 33.5768 73.0932 31.3578 73.0932ZM54.7284 44.1984C54.7284 42.1989 56.527 40.5777 58.7463 40.5777C60.9653 40.5777 62.7633 42.1989 62.7633 44.1984C62.7633 46.1988 60.9653 47.8197 58.7463 47.8197C56.527 47.8197 54.7284 46.1988 54.7284 44.1984ZM72.8231 64.8628C70.6041 64.8628 68.8058 63.2416 68.8058 61.2415C68.8058 60.2447 69.2528 59.342 69.9763 58.6871L71.3301 57.8991L71.3204 57.8852C71.7846 57.7157 72.2911 57.6208 72.8231 57.6208C75.0421 57.6208 76.8401 59.242 76.8401 61.2415C76.8401 63.2414 75.0421 64.8628 72.8231 64.8628ZM100.212 39.5891C97.9926 39.5891 96.194 37.9679 96.194 35.9678C96.194 33.9682 97.9926 32.347 100.212 32.347C102.431 32.347 104.228 33.9682 104.228 35.9678C104.229 37.9681 102.431 39.5891 100.212 39.5891Z" fill="white"/>
<path d="M14.9287 19.3123V86.1285H116.639V19.3123H14.9287ZM111.898 81.4674H19.6688V23.1977H111.898V81.4674Z" fill="white"/>
<path d="M119.346 90.4021H11.9111V98.9484H119.346V90.4021Z" fill="white"/>
<path d="M103.616 128.666H93.2723L64.8271 103.027H75.1707L103.616 128.666Z" fill="white"/>
<path d="M26.0391 128.666H36.3823L64.8265 103.027H54.4833L26.0391 128.666Z" fill="white"/>
<path d="M0.827148 11.543C0.827148 14.1175 3.14267 16.2046 5.99891 16.2046H7.60131V6.88135H5.99891C3.14267 6.88135 0.827148 8.96847 0.827148 11.543Z" fill="white"/>
<path d="M123.655 6.88135V16.2043C126.512 16.2043 128.827 14.1175 128.827 11.5427C128.827 8.96791 126.512 6.88135 123.655 6.88135Z" fill="white"/>
<path d="M64.8271 0.666016C61.0189 0.666016 57.9316 3.44875 57.9316 6.88162H11.9111V16.2046H119.346V6.88133H71.7222C71.7222 3.44847 68.6353 0.666016 64.8271 0.666016Z" fill="white"/>
</svg>

<svg width="129" height="129" xmlns="http://www.w3.org/2000/svg"><path d="M100.212 31.112c-2.976 0-5.388 2.174-5.388 4.857 0 .964.316 1.86.854 2.616L75.765 57.176a5.788 5.788 0 0 0-2.942-.79c-.806 0-1.567.164-2.254.45l-7.236-10.099c.505-.74.8-1.607.8-2.538 0-2.682-2.411-4.856-5.386-4.856-2.976 0-5.388 2.174-5.388 4.856 0 .965.316 1.86.853 2.617L34.3 65.407a5.786 5.786 0 0 0-2.942-.79c-2.975 0-5.387 2.174-5.387 4.855 0 2.682 2.412 4.857 5.387 4.857 2.976 0 5.388-2.175 5.388-4.856 0-.996-.334-1.922-.904-2.693l19.881-18.562a5.781 5.781 0 0 0 3.024.837 5.79 5.79 0 0 0 2.934-.786l7.042 9.828c-.801.847-1.287 1.944-1.287 3.145 0 2.682 2.412 4.856 5.388 4.856s5.387-2.174 5.387-4.856a4.5 4.5 0 0 0-.904-2.692L97.19 39.988a5.781 5.781 0 0 0 3.023.837c2.976 0 5.387-2.175 5.387-4.857-.001-2.682-2.412-4.856-5.387-4.856zM31.358 73.093c-2.22 0-4.018-1.62-4.018-3.621 0-2 1.799-3.62 4.018-3.62s4.017 1.62 4.017 3.62-1.798 3.621-4.017 3.621zm23.37-28.895c0-2 1.799-3.62 4.018-3.62 2.22 0 4.017 1.62 4.017 3.62s-1.798 3.622-4.017 3.622c-2.219 0-4.018-1.621-4.018-3.622zm18.095 20.665c-2.219 0-4.017-1.621-4.017-3.621 0-.997.447-1.9 1.17-2.555l1.354-.788-.01-.014c.465-.17.971-.264 1.503-.264 2.22 0 4.017 1.621 4.017 3.62 0 2-1.798 3.622-4.017 3.622zm27.389-25.274c-2.22 0-4.018-1.621-4.018-3.621s1.799-3.621 4.018-3.621 4.016 1.621 4.016 3.62c.001 2.001-1.797 3.622-4.016 3.622z"/><path d="M14.929 19.312V86.13h101.71V19.312H14.929zm96.969 62.155h-92.23v-58.27h92.23v58.27zM119.346 90.402H11.911v8.546h107.435v-8.546zM103.616 128.666H93.272l-28.445-25.639h10.344l28.445 25.639zM26.04 128.666h10.342l28.444-25.639H54.483L26.04 128.666zM.827 11.543c0 2.575 2.316 4.662 5.172 4.662H7.6V6.88H6c-2.856 0-5.172 2.087-5.172 4.662zM123.655 6.881v9.323c2.857 0 5.172-2.087 5.172-4.661 0-2.575-2.315-4.662-5.172-4.662zM64.827.666c-3.808 0-6.895 2.783-6.895 6.216h-46.02v9.323h107.434V6.88H71.722c0-3.433-3.087-6.215-6.895-6.215z"/></svg>
